X:16951
T:The Life Guards March (1st. Primo). TLY.085
M:4/4
L:1/8
Q:180
S:Wm.Tildesley,Swinton,Lancs.1860s.
R:March
O:England.
A:Lancashire.
D:1860.
Z:Taz Tarry.
K:G
D2| G2 GG GBAc| B2BB Bdce| dgfe dcBA| G2 GG G2 D2| G2 GG GBAc|!
 B2BBBdce|dgfe dcBA| G2GGG2:||:Bc|d2dd dgfe| d2dd d2 Bc|!
 d2 dd dgfe| d2 dd d2 Bc| dBGB dBGB| cAFA cAFA| BGDG BGDG|!
 A2AA A2 D2| G2GG GBAc| B2BB Bdce| dgfe dcBA|G2 GG G2:|]
